X:1
T: The Highland Fair
C:
R:Reel
Q: 232
K:A
M:4/4
L:1/8
|:F|E2 EF EF Ac|dc BA GB Bd|cA ec dc BA|GA Bd cA AF|
E2 EF EF Ac|dc BA GB Bd|cA ec dc BA|GA Bd cA Af|
eA c1/2B1/2A eA ce|eA c1/2B1/2A GA Bg|eA c1/2B1/2A eA c1/2B1/2A|GA Bd cA Af|
eA c1/2B1/2A eA ce|eA c1/2B1/2A GA Bg|eA c1/2B1/2A eA c1/2B1/2A|GA Bd cA A:|
